src/icons/id-not-verified.svg

<svg xmlns="http://www.w3.org/2000/svg"  viewBox="0 0 50 50" width="32px" height="32px"><path d="M 25 2 C 23.34375 2 22 3.34375 22 5 L 22 9 L 28 9 L 28 5 C 28 3.34375 26.65625 2 25 2 Z M 25 5 C 25.554688 5 26 5.449219 26 6 C 26 6.550781 25.554688 7 25 7 C 24.449219 7 24 6.550781 24 6 C 24 5.449219 24.449219 5 25 5 Z M 13 6 C 11.347656 6 10 7.347656 10 9 L 10 41 C 10 42.652344 11.347656 44 13 44 L 30.84375 44 C 32.394531 47.519531 35.914063 50 40 50 C 45.511719 50 50 45.511719 50 40 C 50 34.488281 45.511719 30 40 30 L 40 9 C 40 7.347656 38.652344 6 37 6 L 30 6 L 30 10 C 30 10.550781 29.554688 11 29 11 L 21 11 C 20.449219 11 20 10.550781 20 10 L 20 6 Z M 24.96875 16 C 25.949219 16 26.703125 16.261719 27 16.78125 C 29.863281 17.179688 28.976563 21.035156 28.5625 22.28125 C 28.714844 22.375 28.96875 22.660156 28.90625 23.1875 C 28.789063 24.167969 28.410156 24.417969 28.15625 24.4375 C 28.058594 25.351563 27.480469 26.421875 27.15625 26.59375 C 27.15625 27.246094 27.125 27.753906 27.1875 28.46875 C 27.839844 30.21875 32.117188 30.050781 32.875 33.03125 C 32.574219 33.335938 32.289063 33.65625 32.03125 34 L 17 34 C 17 33.84375 17.015625 33.703125 17.03125 33.5625 L 17 33.53125 C 17.386719 30.03125 22.09375 30.3125 22.78125 28.46875 C 22.785156 28.429688 22.8125 28.378906 22.84375 28.34375 C 22.894531 27.691406 22.875 27.210938 22.875 26.59375 C 22.550781 26.421875 21.941406 25.351563 21.84375 24.4375 C 21.589844 24.417969 21.179688 24.167969 21.0625 23.1875 C 21 22.660156 21.253906 22.375 21.40625 22.28125 C 20.546875 18.96875 21.042969 16.070313 24.96875 16 Z M 40 32 C 44.429688 32 48 35.570313 48 40 C 48 44.429688 44.429688 48 40 48 C 35.570313 48 32 44.429688 32 40 C 32 35.570313 35.570313 32 40 32 Z M 36.90625 35.96875 C 36.863281 35.976563 36.820313 35.988281 36.78125 36 C 36.40625 36.066406 36.105469 36.339844 36 36.703125 C 35.894531 37.070313 36.003906 37.460938 36.28125 37.71875 L 38.5625 40 L 36.28125 42.28125 C 35.882813 42.679688 35.882813 43.320313 36.28125 43.71875 C 36.679688 44.117188 37.320313 44.117188 37.71875 43.71875 L 40 41.4375 L 42.28125 43.71875 C 42.679688 44.117188 43.320313 44.117188 43.71875 43.71875 C 44.117188 43.320313 44.117188 42.679688 43.71875 42.28125 L 41.4375 40 L 43.71875 37.71875 C 44.042969 37.417969 44.128906 36.941406 43.933594 36.546875 C 43.742188 36.148438 43.308594 35.929688 42.875 36 C 42.652344 36.023438 42.441406 36.125 42.28125 36.28125 L 40 38.5625 L 37.71875 36.28125 C 37.511719 36.058594 37.210938 35.945313 36.90625 35.96875 Z"/></svg>

<svg role="img" viewBox="0 0 50 50" xmlns="http://www.w3.org/2000/svg"><path d="M25 2a3 3 0 0 0-3 3v4h6V5a3 3 0 0 0-3-3m0 3a1 1 0 1 1 .001 1.999A1 1 0 0 1 25 5M13 6c-1.652 0-3 1.348-3 3v32c0 1.652 1.348 3 3 3h17.844c1.55 3.52 5.07 6 9.156 6 5.512 0 10-4.488 10-10s-4.488-10-10-10V9c0-1.652-1.348-3-3-3h-7v4a1 1 0 0 1-1 1h-8c-.55 0-1-.45-1-1V6Zm11.969 10c.98 0 1.734.262 2.031.781 2.863.399 1.977 4.254 1.563 5.5.152.094.406.38.343.907-.117.98-.496 1.23-.75 1.25-.097.914-.676 1.984-1 2.156 0 .652-.031 1.16.032 1.875.652 1.75 4.93 1.582 5.687 4.562a9.62 9.62 0 0 0-.844.969H17c0-.156.016-.297.031-.437L17 33.53c.387-3.5 5.094-3.218 5.781-5.062a.253.253 0 0 1 .063-.125c.05-.653.031-1.133.031-1.75-.324-.172-.934-1.242-1.031-2.157-.254-.019-.664-.269-.782-1.25-.062-.527.192-.812.344-.906-.86-3.312-.363-6.21 3.563-6.281M40 32c4.43 0 8 3.57 8 8s-3.57 8-8 8-8-3.57-8-8 3.57-8 8-8m-3.094 3.969c-.043.008-.086.02-.125.031a.994.994 0 0 0-.781.703c-.105.367.004.758.281 1.016L38.563 40l-2.282 2.281a1.014 1.014 0 0 0 0 1.438c.399.398 1.04.398 1.438 0L40 41.437l2.281 2.282c.399.398 1.04.398 1.438 0a1.014 1.014 0 0 0 0-1.438L41.437 40l2.282-2.281a.996.996 0 0 0 .215-1.172.996.996 0 0 0-1.059-.547 1.008 1.008 0 0 0-.594.281L40 38.563l-2.281-2.282a1.004 1.004 0 0 0-.813-.312"/></svg>
